X:1
T:In the Secret Place of God
T:In the Secret Place of God
T:Walter Lewis
T:Llewellyn A. Morrison, 1896
T:Public Domain Courtesy of the Cyber Hymnal™
T:Public Domain Courtesy of the Cyber Hymnal™
C:Walter Lewis
Z:Public Domain
Z:Courtesy of the Cyber Hymnal™
%%score ( 1 2 ) ( 3 4 )
L:1/8
Q:1/4=90
M:4/4
K:Bb
V:1 treble 
V:2 treble 
V:3 bass 
V:4 bass 
V:1
 [DB][Ec] | [Fd][DB][EG][GB] [DF][DF][B,D][DF] | [EG]2 [CE]2 [DF]2 [DB][Ec] | %3
w: 1.~He that|dwell- eth in the sec- ret place of|God, Most High, When the|
w: 2.~He a|for- tress is and ref- uge un- to|all who trust; From the|
w: 3.~He that|said it: “I will an- swer him who|calls on Me; Wi- ll|
 [Fd][DB][EG][GB] F[FB][FA][FB] | [Gc]<[Ec] [=Ec]>[Ed] [Fc]2 ([DB][_Ec]) | %5
w: days of bit- ing bit- ter- ness and|tra- vail draw- eth nigh, With~the *|
w: fowl- er’s snare and pest- i- lence He|ran- som- eth the just; His *|
w: hon- or and de- liv- er him; from|trou- ble set him free; Be- *|
 [Fd][DB][EG][GB] [DF][DF][B,D][DF] | [EG][EG][=EA][EB] [Fc]2 [DB][_Ec] | %7
w: crim- soned lin- tel o- ver and the|shel- tering sol- ace sure, Doth a-|
w: truth is shield and buck- ler, so the|po- tent prom- ise rings, And there’s|
w: cause his love is on Me still, My|name to glor- i- fy, I will|
 [Fd][DB][EG][GB] F[DB][FB][Gc] | [Bd]<B [Ac]>[Fc] [FB]2 ||"^Refrain" [FA][GB] | %10
w: bide be- neath the sha- dow of Om-|ni- po- tence, se- cure.||
w: rest, de- light and safe- ty ’neath the|co- ver of His wings.|Art thou|
w: save and sa- tis- fy him, and will|give him life on high.”||
 [Ac][Ac][^G=B][Ac] [_Bd]<[Ac] [FB][FA] | [=EG][FA][GB][Ec] [FA]2 [FA][GB] | %12
w: ||
w: dwell- ing in this hid- ing, Un- der-|neath the sprink- led blood? Is thy|
w: ||
 [Ac][Ac][^G=B][Ac] [_Bd][df][c=e][Bd] | %13
w: |
w: soul, by grace, a- bid- ing In the|
w: |
 [Gc][EG]"^riten." [GB]>[=EG] !fermata!F2"^A tempo" !fermata![Fd]>[_Ec] | %14
w: |
w: sec- ret place of God? There is|
w: |
 [DB][DB] [DB]>[DB] [Ec][DB][FB][FA] | %15
w: |
w: full- ness there, and sweet- ness; All thy|
w: |
 [EG][GB][FA][EG] [DF]2 FF[EG][FA][GB][Gc][Fd][DB]!fermata![^CA][CG] | [DF][FB] [FA]>[FB] [FB]2 |] %17
w: ||
w: pow’rs find full em- ploy, Glad- ness, com- fort- ing, com- plete- ness, Peace, and|ev- er- last- ing joy.|
w: ||
V:2
 x2 | x8 | x8 | x4 F x3 | x8 | x8 | x8 | x4 F x3 | x/ B3/2 x4 || x2 | x8 | x8 | x8 | x4 F2 x2 | %14
 x8 | x6 FF x8 | x6 |] %17
V:3
 [B,,B,][B,,B,] | [B,,B,][B,,B,][B,,B,][B,,B,] [B,,B,][B,,B,][B,,B,][B,,B,] | %2
 [E,B,]2 [F,A,]2 [B,,B,]2 [B,,B,][B,,B,] | [B,,B,][B,,B,][E,B,][E,B,] [D,B,][B,,B,][E,C][D,D] | %4
 [C,E]<[C,G,] [C,C]>[C,B,] [F,A,]2 ([B,,B,][B,,B,]) | %5
 [B,,B,][B,,B,][B,,B,][B,,B,] [B,,B,][B,,B,][B,,B,][B,,B,] | %6
 [E,B,][E,B,][C,C][C,B,] A,2 [D,B,][C,A,] | [B,,B,][B,,B,][E,B,][E,B,] [D,B,][B,,B,][D,B,][E,B,] | %8
 [F,B,]<[F,D] [F,E]>[F,E] [B,,D]2 || F,F, | F,F,F,F, F,<F, [F,D][F,C] | %11
 [C,B,][C,A,][C,G,][C,C] [F,C]2 F,F, | F,F,F,F, B,B,[B,D][B,F] | %13
 [CF]C [C,C]>[C,B,] !fermata![F,A,]2 !fermata![F,B,]>[F,A,] | %14
 [B,,B,][B,,F,] [B,,G,]>[B,,A,] [B,,B,][B,,B,][D,B,][D,D] | %15
 [E,B,][E,B,][E,B,][E,B,] B,2 [D,B,][D,B,][E,B,][E,B,][E,B,][E,E][F,B,][F,B,][=E,B,][E,B,] | %16
 [F,B,][F,D] [F,E]>[B,,D] [B,,D]2 |] %17
V:4
 x2 | x8 | x8 | x8 | x8 | x8 | x4 (F,E,) x2 | x8 | x6 || x2 | x8 | x8 | x8 | x C x6 | x8 | %15
 x4 B,2 x10 | x6 |] %17

